!!!OTL: Das Pavierlied
!!!SCT: A0389
!!!YEM: Copyright 1995, estate of Helmut Schaffrath.
**kern
*ICvox
*Ivox
!! Mixed meters:  4/2; 6/2
*M6/2
*k[b-]
*d:
{1a
=1
2a
2a
2g
2a
=2
2fn
2e
1d}
=3
{1a
=4
2ccn
2dd
2a
2b
=5
1ccn
1a}
=6
{1a
=7
2a
2a
2g
2a
=8
2fn
2e
1d}
=9
{1a
=10
2ccn
2dd
2a
2b
=11
1ccn
1a}
=12
{1ccn
=13
2ccn
2ccn
1a
1fn
=14
2g
2g
1fn
2r}
{2a
=15
2a
2a
1g
1a
=16
2fn
2e
1d
2r}
{2a
=17
2a
2g
1a
1b
=18
2ccn
2a
1g
2r}
{2dd
=19
1ee
1dd
2a
2ccn
=20
1b
1a}
==
!!!AGN: Romanze, Ballade, Lied, religioeses Lied
!! Fliegendes Blatt von 1525.
!!!ONB: ESAC (Essen Associative Code) Database: ALTDEU
!!!AMT: irregular
!!!AIN: vox
!!!EED: Helmut Schaffrath
!!!EEV: 1.0
*-
